X:371
T:Reel 371
M:4/4
K:Dmaj
L:1/8
AG|FDEC A,>D (3DCD |FDFA A2GF|EE (3EEE GFGB|edcB ABAG|FDED A,D (3DDD |FDFA d2cd|BAGF EDCD|EFGE |2|Bc|dcdB c2dA|BA (3FEF G2E2|Bc (3dcB cABG|EFGE D2A2|dc (3dcB A2Bc|dcdB AFDF|GEBG FGAF|EDEF G2|
